source/assets/img/logo_torggler.svg

<?xml version="1.0" encoding="utf-8"?>
<!-- Generator: Adobe Illustrator 17.1.0, SVG Export Plug-In . SVG Version: 6.00 Build 0)  -->
<!DOCTYPE svg PUBLIC "-//W3C//DTD SVG 1.1//EN" "http://www.w3.org/Graphics/SVG/1.1/DTD/svg11.dtd">
<svg version="1.1" id="Layer_1" xmlns="http://www.w3.org/2000/svg" xmlns:xlink="http://www.w3.org/1999/xlink" x="0px" y="0px"
	 viewBox="0 0 406 111" enable-background="new 0 0 406 111" xml:space="preserve">
<path fill="#FFFFFF" d="M93,9.89v92.22H0.78V9.89H93z M9.94,45.75v47.21H25.7V51L9.94,45.75z M58.92,92.96V44.4l24.92-8.3V19.05
	H9.94v17.04l24.92,8.31v48.56H58.92z M83.84,45.75L68.08,51v41.96h15.76V45.75z"/>
<g>
	<path fill-rule="evenodd" clip-rule="evenodd" fill="#FFFFFF" d="M140.93,64.27c-2.95,12.9,2.93,22.08,16.89,22.08
		c15.31,0,25.24-7.04,28.72-22.08c3.02-13.06-2.69-22.16-16.98-22.16C152.13,42.11,143.92,51.2,140.93,64.27z M166.89,52.69
		c5.38,0,7.04,2.81,5.06,11.23c-2.06,8.74-5.94,11.55-11.22,11.55c-4.55,0-6.79-3.19-4.9-11.37
		C157.77,55.75,161.84,52.69,166.89,52.69z"/>
	<path fill-rule="evenodd" clip-rule="evenodd" fill="#FFFFFF" d="M231.04,102.08c-4.74,0-9.31-0.73-12.34-1.75l2.59-11.37
		c2.28,0.95,7.27,2.01,10.88,2.01c3.84-0.01,7.29-2.04,8.23-6.52l0.48-2.01l-0.27,0.2c-1.32,1.56-7.25,2.7-12.33,2.7
		c-13.13,0-14.58-11.56-12.61-20.82C218.55,51,227,42.54,236.87,42.54c6,0,8.5,1.8,12.25,5.17l0.15,0l0.96-3.97h14.45l-9.03,39.3
		C252.17,98.04,244.68,102.08,231.04,102.08z M244.84,64.9c-1.23,5.74-3.8,10.46-9.27,10.46c-6.27,0-5.1-8.23-4.26-12.09
		c0.88-4.07,3.54-9.33,9.3-9.33C244.41,53.94,246.08,59.11,244.84,64.9z"/>
	<path fill-rule="evenodd" clip-rule="evenodd" fill="#FFFFFF" d="M192.81,43.64h13.88l-1.15,5.21l0,0
		c4.81-5.33,9.53-6.16,13.4-6.27c1.97-0.06,3.16-0.12,3.53,0.26l-2.71,11.92c-0.93-0.15-2.93,0.39-4.64,0.76
		c-6.33,1.4-11.53,6.46-13.59,14.87c-0.43,1.74-3.24,14.68-3.24,14.68h-15L192.81,43.64z"/>
	<polygon fill-rule="evenodd" clip-rule="evenodd" fill="#FFFFFF" points="333.22,23.57 319.02,85.07 304.02,85.07 318.23,23.57 	
		"/>
	<path fill-rule="evenodd" clip-rule="evenodd" fill="#FFFFFF" d="M375.36,43.64h13.89l-1.15,5.21l0,0
		c4.81-5.33,9.53-6.16,13.4-6.27c1.97-0.06,3.16-0.12,3.53,0.26l-2.71,11.92c-0.93-0.15-2.93,0.39-4.64,0.76
		c-6.33,1.4-11.53,6.46-13.59,14.87c-0.43,1.74-3.24,14.68-3.24,14.68h-15L375.36,43.64z"/>
	<polygon fill-rule="evenodd" clip-rule="evenodd" fill="#FFFFFF" points="165.9,23.59 112.68,23.59 109.21,38.35 127.8,38.35 
		116.99,85.07 133.2,85.07 143.94,38.35 162.5,38.35 	"/>
	<path fill-rule="evenodd" clip-rule="evenodd" fill="#FFFFFF" d="M276.76,102.08c-4.74,0-9.31-0.73-12.33-1.75l2.59-11.37
		c2.28,0.95,7.27,2.01,10.88,2.01c3.84-0.01,7.29-2.04,8.23-6.52l0.48-2.01l-0.27,0.2c-1.32,1.56-7.25,2.7-12.33,2.7
		c-13.13,0-14.57-11.56-12.61-20.82c2.87-13.51,11.32-21.97,21.19-21.97c6,0,8.5,1.8,12.25,5.17l0.15,0l0.96-3.97h14.45l-9.03,39.3
		C297.89,98.04,290.4,102.08,276.76,102.08z M290.57,64.9c-1.23,5.74-3.8,10.46-9.27,10.46c-6.27,0-5.1-8.23-4.26-12.09
		c0.88-4.07,3.54-9.33,9.3-9.33C290.13,53.94,291.81,59.11,290.57,64.9z"/>
	<path fill-rule="evenodd" clip-rule="evenodd" fill="#FFFFFF" d="M340.91,60.24c0.54-2.68,3.15-7.74,9.27-7.74
		c5.54,0,5.85,3.95,5.13,7.74H340.91z M352.39,74.05c-1.45,2.02-3.97,3.46-7.06,3.46c-6.73,0-7.34-4.71-6.34-9.19h29.14
		c0.26-0.86,0.59-2.42,0.85-3.56c2.98-13.36-2.33-22.35-17.15-22.35c-13.71,0-23.62,8.63-26.64,21.54
		c-3.03,12.95,2.99,22.83,18.93,22.83c11.78,0,20.41-5.61,22.21-12.68L352.39,74.05z"/>
</g>
</svg>

<?xml version="1.0" encoding="UTF-8" standalone="no"?>
<!DOCTYPE svg PUBLIC "-//W3C//DTD SVG 1.1//EN" "http://www.w3.org/Graphics/SVG/1.1/DTD/svg11.dtd">
<svg width="100%" height="100%" viewBox="0 0 298 111" version="1.1" xmlns="http://www.w3.org/2000/svg" xmlns:xlink="http://www.w3.org/1999/xlink" xml:space="preserve" xmlns:serif="http://www.serif.com/" style="fill-rule:evenodd;clip-rule:evenodd;stroke-linejoin:round;stroke-miterlimit:2;">
    <g transform="matrix(1,0,0,1,-108,0)">
        <path d="M140.93,64.27C137.98,77.17 143.86,86.35 157.82,86.35C173.13,86.35 183.06,79.31 186.54,64.27C189.56,51.21 183.85,42.11 169.56,42.11C152.13,42.11 143.92,51.2 140.93,64.27ZM166.89,52.69C172.27,52.69 173.93,55.5 171.95,63.92C169.89,72.66 166.01,75.47 160.73,75.47C156.18,75.47 153.94,72.28 155.83,64.1C157.77,55.75 161.84,52.69 166.89,52.69Z" style="fill:white;"/>
        <path d="M231.04,102.08C226.3,102.08 221.73,101.35 218.7,100.33L221.29,88.96C223.57,89.91 228.56,90.97 232.17,90.97C236.01,90.96 239.46,88.93 240.4,84.45L240.88,82.44L240.61,82.64C239.29,84.2 233.36,85.34 228.28,85.34C215.15,85.34 213.7,73.78 215.67,64.52C218.55,51 227,42.54 236.87,42.54C242.87,42.54 245.37,44.34 249.12,47.71L249.27,47.71L250.23,43.74L264.68,43.74L255.65,83.04C252.17,98.04 244.68,102.08 231.04,102.08ZM244.84,64.9C243.61,70.64 241.04,75.36 235.57,75.36C229.3,75.36 230.47,67.13 231.31,63.27C232.19,59.2 234.85,53.94 240.61,53.94C244.41,53.94 246.08,59.11 244.84,64.9Z" style="fill:white;"/>
        <path d="M192.81,43.64L206.69,43.64L205.54,48.85C210.35,43.52 215.07,42.69 218.94,42.58C220.91,42.52 222.1,42.46 222.47,42.84L219.76,54.76C218.83,54.61 216.83,55.15 215.12,55.52C208.79,56.92 203.59,61.98 201.53,70.39C201.1,72.13 198.29,85.07 198.29,85.07L183.29,85.07L192.81,43.64Z" style="fill:white;"/>
        <path d="M333.22,23.57L319.02,85.07L304.02,85.07L318.23,23.57L333.22,23.57Z" style="fill:white;"/>
        <path d="M375.36,43.64L389.25,43.64L388.1,48.85C392.91,43.52 397.63,42.69 401.5,42.58C403.47,42.52 404.66,42.46 405.03,42.84L402.32,54.76C401.39,54.61 399.39,55.15 397.68,55.52C391.35,56.92 386.15,61.98 384.09,70.39C383.66,72.13 380.85,85.07 380.85,85.07L365.85,85.07L375.36,43.64Z" style="fill:white;"/>
        <path d="M165.9,23.59L112.68,23.59L109.21,38.35L127.8,38.35L116.99,85.07L133.2,85.07L143.94,38.35L162.5,38.35L165.9,23.59Z" style="fill:white;"/>
        <path d="M276.76,102.08C272.02,102.08 267.45,101.35 264.43,100.33L267.02,88.96C269.3,89.91 274.29,90.97 277.9,90.97C281.74,90.96 285.19,88.93 286.13,84.45L286.61,82.44L286.34,82.64C285.02,84.2 279.09,85.34 274.01,85.34C260.88,85.34 259.44,73.78 261.4,64.52C264.27,51.01 272.72,42.55 282.59,42.55C288.59,42.55 291.09,44.35 294.84,47.72L294.99,47.72L295.95,43.75L310.4,43.75L301.37,83.05C297.89,98.04 290.4,102.08 276.76,102.08ZM290.57,64.9C289.34,70.64 286.77,75.36 281.3,75.36C275.03,75.36 276.2,67.13 277.04,63.27C277.92,59.2 280.58,53.94 286.34,53.94C290.13,53.94 291.81,59.11 290.57,64.9Z" style="fill:white;"/>
        <path d="M340.91,60.24C341.45,57.56 344.06,52.5 350.18,52.5C355.72,52.5 356.03,56.45 355.31,60.24L340.91,60.24ZM352.39,74.05C350.94,76.07 348.42,77.51 345.33,77.51C338.6,77.51 337.99,72.8 338.99,68.32L368.13,68.32C368.39,67.46 368.72,65.9 368.98,64.76C371.96,51.4 366.65,42.41 351.83,42.41C338.12,42.41 328.21,51.04 325.19,63.95C322.16,76.9 328.18,86.78 344.12,86.78C355.9,86.78 364.53,81.17 366.33,74.1L352.39,74.05Z" style="fill:white;"/>
    </g>
</svg>
